X:5
T:Three Sea Captains, The
R:set dance
M:6/8
K:G
D|~G3 BGB|c2A F2A|GDG BGB|d2B GAB|\
cec A2c|BdB G2B|A2B c2B|ABG FED|\
GDG BGB|c2A F2D|GDG BGB|d2B GAB|\
cec ~A3|BdB G2F|EcB AGF|~G3 G2:|\
d|gfg dcB|ABc def|gfg dBd|ecA A3|\
g2a bge|f2g afd|~e3 ge^c|d2f gdB|\
c2d ecA|B2c dBG|A2B c2B|ABG FED|\
GDG BGB|c2A F2D|~G3 BGB|d2B G2B|\
cec A2c|BdB G2F|EcB AGF|~G3 G2:|**

